X:1     %Music
T:The Three Dukes
B:Broadwood, L, 1893, English County Songs, London, Leadenhall Press
Z:Lucy Broadwood
F:http://www.folkinfo.org/songs
M:2/4     %Meter
L:1/16     %
K:A
E2 |A2 A2 A2 A2 |(c2E2) c3 A |(B3A) B3 c | (B2A2)  F2
w:Here come three dukes a-rid--ing, a-rid--ing, a-rid--ing, 
E2 |c2 c2 c2 c2 |c2 E2 c2 A2 |B3 A B3 c | A6  |]
w:Here come three dukes a-rid-ing, Ran-sam, tan-sam, ti-sam, tee